Hatter-kde/actions/22/tools-rip-video-cd.svg

<?xml version="1.0" encoding="UTF-8"?>
<svg viewBox="0 0 22 22" xmlns="http://www.w3.org/2000/svg">
 <defs id="defs3051">
  <style id="current-color-scheme" type="text/css">.ColorScheme-Text {
        color:#363636;
      }</style>
 </defs>
 <path class="ColorScheme-Text" d="m11 3c-4.432 0-8 3.568-8 8s3.568 8 8 8v-1c-3.878 0-7-3.122-7-7s3.122-7 7-7 7 3.122 7 7h1c0-4.432-3.568-8-8-8zm0 2c-3.324 0-6 2.676-6 6h3c0-1.662 1.338-3 3-3v-3zm0 4c-1.108 0-2 0.892-2 2s0.892 2 2 2v-1c-0.554 0-1-0.446-1-1s0.446-1 1-1 1 0.446 1 1h1c0-1.108-0.892-2-2-2zm2.5 4c-0.831 0-1.5 0.669-1.5 1.5 0 0.65424 0.41808 1.2022 1 1.4082v3.0918h4v-2-1c0.554 0 1-0.446 1-1s-0.446-1-1-1-1 0.446-1 1h-1.0918c0.055658-0.15722 0.091797-0.32324 0.091797-0.5 0-0.831-0.669-1.5-1.5-1.5zm3.5 4 2 2v-4l-2 2zm-3-1h2v2h-2v-2z" fill="currentColor"/>
</svg>

<svg xmlns="http://www.w3.org/2000/svg" viewBox="0 0 22 22">
  <defs id="defs3051">
    <style type="text/css" id="current-color-scheme">
      .ColorScheme-Text {
        color:#363636;
      }
      </style>
  </defs>
 <path 
    style="fill:currentColor;fill-opacity:1;stroke:none" 
    d="M 11 3 C 6.568 3 3 6.568 3 11 C 3 15.432 6.568 19 11 19 L 11 18 C 7.122 18 4 14.878 4 11 C 4 7.122 7.122 4 11 4 C 14.878 4 18 7.122 18 11 L 19 11 C 19 6.568 15.432 3 11 3 z M 11 5 C 7.676 5 5 7.676 5 11 L 8 11 C 8 9.338 9.338 8 11 8 L 11 5 z M 11 9 C 9.892 9 9 9.892 9 11 C 9 12.108 9.892 13 11 13 L 11 12 C 10.446 12 10 11.554 10 11 C 10 10.446 10.446 10 11 10 C 11.554 10 12 10.446 12 11 L 13 11 C 13 9.892 12.108 9 11 9 z M 13.5 13 C 12.669 13 12 13.669 12 14.5 C 12 15.15424 12.418077 15.702197 13 15.908203 L 13 19 L 17 19 L 17 17 L 17 16 C 17.554 16 18 15.554 18 15 C 18 14.446 17.554 14 17 14 C 16.446 14 16 14.446 16 15 L 14.908203 15 C 14.963861 14.842779 15 14.67676 15 14.5 C 15 13.669 14.331 13 13.5 13 z M 17 17 L 19 19 L 19 15 L 17 17 z M 14 16 L 16 16 L 16 18 L 14 18 L 14 16 z "
    class="ColorScheme-Text"
    />  
</svg>
